Obsidian-SemiLight/actions/16s/filename-filetype-amarok.svg

<svg viewBox="0 0 16 16" xmlns="http://www.w3.org/2000/svg"><path d="m5 2v1 7.28125c-.29454-.17076-.63503-.28125-1-.28125-1.10457 0-2 .89544-2 2s.89543 2 2 2 2-.89544 2-2v-7h7v4.28125c-.29454-.17076-.63504-.28125-1-.28125-1.10457 0-2 .89544-2 2s.89543 2 2 2 2-.89544 2-2v-8-1zm1 1h7v1h-7z" fill="#4d4d4d"/></svg>

<svg xmlns="http://www.w3.org/2000/svg" viewBox="0 0 16 16">
  <defs id="defs3051">
    <style type="text/css" id="current-color-scheme">
      .ColorScheme-Text {
        color:#4d4d4d;
      }
      </style>
  </defs>
 <path style="fill:currentColor;fill-opacity:1;stroke:none" 
     d="M 5 2 L 5 3 L 5 10.28125 C 4.70546 10.11049 4.36497 10 4 10 C 2.89543 10 2 10.89544 2 12 C 2 13.10456 2.89543 14 4 14 C 5.10457 14 6 13.10456 6 12 L 6 5 L 13 5 L 13 9.28125 C 12.70546 9.11049 12.36496 9 12 9 C 10.89543 9 10 9.89544 10 11 C 10 12.10456 10.89543 13 12 13 C 13.10457 13 14 12.10456 14 11 L 14 3 L 14 2 L 5 2 z M 6 3 L 13 3 L 13 4 L 6 4 L 6 3 z "
     class="ColorScheme-Text"
     />
</svg>
